actions/24/connector-ignore.svg

<?xml version="1.0" encoding="UTF-8" standalone="no"?>
<svg
   width="24"
   height="24"
   version="1.1"
   id="svg11"
   sodipodi:docname="connector-ignore.svg"
   inkscape:version="1.2.1 (9c6d41e410, 2022-07-14, custom)"
   xmlns:inkscape="http://www.inkscape.org/namespaces/inkscape"
   xmlns:sodipodi="http://sodipodi.sourceforge.net/DTD/sodipodi-0.dtd"
   xmlns="http://www.w3.org/2000/svg"
   xmlns:svg="http://www.w3.org/2000/svg">
  <sodipodi:namedview
     id="namedview13"
     pagecolor="#000000"
     bordercolor="#000000"
     borderopacity="0.25"
     inkscape:showpageshadow="2"
     inkscape:pageopacity="0"
     inkscape:pagecheckerboard="0"
     inkscape:deskcolor="#d1d1d1"
     showgrid="false"
     inkscape:zoom="33.458333"
     inkscape:cx="11.985056"
     inkscape:cy="11.955168"
     inkscape:window-width="1920"
     inkscape:window-height="1051"
     inkscape:window-x="0"
     inkscape:window-y="29"
     inkscape:window-maximized="1"
     inkscape:current-layer="g9" />
  <defs
     id="defs3">
    <style
       id="current-color-scheme"
       type="text/css">
   .ColorScheme-Text { color:#eeeeec; } .ColorScheme-Highlight { color:#367bf0; } .ColorScheme-NeutralText { color:#ffcc44; } .ColorScheme-PositiveText { color:#3db47e; } .ColorScheme-NegativeText { color:#dd4747; }
  </style>
  </defs>
  <g
     transform="translate(4,4)"
     id="g9">
    <path
       style="fill:currentColor"
       class="ColorScheme-Text"
       d="M 5.584,3 H 5 V 4 L 7.7125754,8.5092683 7.4460422,9.3157092 8.2992557,9.4845403 10.414,13 H 11 V 12 L 8.2331929,7.4022777 8.753664,6.7643722 7.5991793,6.3487101 Z"
       id="path5"
       sodipodi:nodetypes="ccccccccccccc" />
    <path
       style="fill:currentColor"
       class="ColorScheme-Text"
       d="m 3,6 v 4 H 13 V 6 Z M 4,7 H 8.4972807 12 V 9 H 4 Z m 7,5 h 4 c 0,0 1,0 1,1 v 1 c 0,0 0,1 -1,1 h -4 c 0,0 -1,0 -1,-1 v -1 c 0,0 0,-1 1,-1 z M 1,1 H 5 C 5,1 6,1 6,2 V 3 C 6,3 6,4 5,4 H 1 C 1,4 0,4 0,3 V 2 C 0,2 0,1 1,1 Z"
       id="path7"
       sodipodi:nodetypes="cccccccccccscscscscsscscscscs" />
  </g>
</svg>

<svg xmlns="http://www.w3.org/2000/svg" width="24" height="24" version="1.1">
 <defs>
  <style id="current-color-scheme" type="text/css">
   .ColorScheme-Text { color:#eeeeec; } .ColorScheme-Highlight { color:#367bf0; } .ColorScheme-NeutralText { color:#ffcc44; } .ColorScheme-PositiveText { color:#3db47e; } .ColorScheme-NegativeText { color:#dd4747; }
  </style>
 </defs>
 <g transform="translate(4,4)">
  <path style="fill:currentColor" class="ColorScheme-Text" d="M 5.584,3 H 5 V 4 L 10.414,13 H 11 V 12 Z"/>
  <path style="fill:currentColor" class="ColorScheme-Text" d="M 3,6 V 10 H 13 V 6 Z M 4,7 H 12 V 9 H 4 Z M 11,12 H 15 C 15,12 16,12 16,13 V 14 C 16,14 16,15 15,15 H 11 C 11,15 10,15 10,14 V 13 C 10,13 10,12 11,12 Z M 1,1 H 5 C 5,1 6,1 6,2 V 3 C 6,3 6,4 5,4 H 1 C 1,4 0,4 0,3 V 2 C 0,2 0,1 1,1 Z"/>
 </g>
</svg>
